icon-themes/sifr_svg/cmd/sc_validation.svg

<svg viewBox="0 0 16 16" xmlns="http://www.w3.org/2000/svg"><path d="m2 1c-.554 0-1 .446-1 1v12c0 .554.446 1 1 1h4c.554 0 1-.446 1-1v-12c0-.554-.446-1-1-1zm12.5 0-3.5 4-1.6992188-1.5-1.3007812 1.5996094 3 2.9003906 5-5.5996094zm-11.5 2h2v2h-2zm11.5 3c-.37 0-.700469.1503906-.980469.4003906l-3.9687498 3.5996094h1.4492188l3.130859-2.8398438c.151932-.16.239141-.1601562.369141-.1601562h.5v.5c0 .28.22.5.5.5s.5-.22.5-.5v-.5c0-.7-.16-1-1-1zm-11.5 1h2v2h-2zm5 3v1l1.5 1.5-1.5 1.5v1h1l1.5-1.5 1.5 1.5h1v-1l-1.5-1.5 1.5-1.5v-1h-1l-1.5 1.5-1.5-1.5zm-5 1h.0410156 1.9179688.0410156v2h-2z" fill="#555753"/></svg>

<svg xmlns="http://www.w3.org/2000/svg" viewBox="0 0 16 16">
  <path
     style="fill:#555753"
     d="M 2 1 C 1.446 1 1 1.446 1 2 L 1 14 C 1 14.554 1.446 15 2 15 L 6 15 C 6.554 15 7 14.554 7 14 L 7 2 C 7 1.446 6.554 1 6 1 L 2 1 z M 14.5 1 L 11 5 L 9.3007812 3.5 L 8 5.0996094 L 11 8 L 16 2.4003906 L 14.5 1 z M 3 3 L 5 3 L 5 5 L 3 5 L 3 3 z M 14.5 6 C 14.13 6 13.799531 6.1503906 13.519531 6.4003906 L 9.5507812 10 L 11 10 L 14.130859 7.1601562 C 14.282791 7.0001562 14.37 7 14.5 7 L 15 7 L 15 7.5 C 15 7.78 15.22 8 15.5 8 C 15.78 8 16 7.78 16 7.5 L 16 7 C 16 6.3 15.84 6 15 6 L 14.5 6 z M 3 7 L 5 7 L 5 9 L 3 9 L 3 7 z M 8 10 L 8 11 L 9.5 12.5 L 8 14 L 8 15 L 9 15 L 10.5 13.5 L 12 15 L 13 15 L 13 14 L 11.5 12.5 L 13 11 L 13 10 L 12 10 L 10.5 11.5 L 9 10 L 8 10 z M 3 11 L 3.0410156 11 L 4.9589844 11 L 5 11 L 5 13 L 3 13 L 3 11 z "
     />
</svg>
